X:1
T:Wedlock, 76.76
T:Wedlock, 76.76
T:The Sacred Harp, 1844
T:Public Domain Courtesy of the Cyber Hymnal™
C:The Sacred Harp, 1844
Z:Public Domain
Z:Courtesy of the Cyber Hymnal™
%%score ( 1 2 ) ( 3 4 )
L:1/8
Q:1/4=110
M:2/2
K:D
V:1 treble 
V:2 treble 
V:3 bass 
V:4 bass 
V:1
 E2 | F2 E2 F2 A2 | B4 (BA) F2 | E2 E2 D2 B,2 | [B,D]6 (DE) | F2 E2 F2 A2 | B4 (BA) F2 | %7
 E2 E2 D2 F2 | [B,E]6 B2 | d2 B2 A2 d2 | [EB]4 (BA) F2 | E2 D2 [A,D]2 [G,B,]2 | [B,D]6 [CE]2 | %13
 [DF]2 E2 [DF]2 [CA]2 | [B,B]4 (BA) F2 | [B,E]2 [=CE]2 D2 F2 | [B,E]6 |] %17
V:2
 x2 | x8 | B4 D4 | B,4 B,4 | x6 D2 | D4 C4 | B,2 D2 D4 | B,4 D4 | x6 B2 | G4 F4 | x4 D4 | =C4 x4 | %12
 x8 | x2 E2 x4 | x4 D4 | x4 D4 | x6 |] %17
V:3
 E,2 | F,2 E,2 F,2 A,2 | B,4 G,2 [D,A,]2 | [E,G,]4 [B,,F,]2 [E,G,]2 | [B,,F,]6 [B,,G,]2 | F,8 | %6
 G,,2 G,2 F,2 [D,A,]2 | [E,G,]4 F,2 A,2 | [E,G,]6 B,2 | [G,B,]4 [D,A,]4 | [E,G,]4 [B,,F,]4 | %11
 [=C,G,]4 [D,F,]2 E,2 | [B,,F,]6 [A,,A,]2 | A,8 | G,4 F,2 A,2 | G,4 [D,F,]2 [B,,A,]2 | [E,G,]6 |] %17
V:4
 x2 | x8 | x8 | x8 | x8 | B,,4 A,,4 | x8 | x4 B,,4 | x8 | x8 | x8 | x8 | x8 | D,2 C,2 D,2 F,2 | %14
 x4 D,4 | E,2 =C,2 x4 | x6 |] %17

